X:1
T:Missa pro defunctis - Pitoni
T:#
%%score { 1 | 2 } 3 4 5
L:1/8
Q:1/4=180
M:none
K:F
V:1 treble nm="Soprano" snm="Soprano"
V:2 treble 
V:3 treble nm="Alto" snm="Alto"
V:4 treble-8 nm="Tenor" snm="Tenor"
V:5 bass nm="Bass" snm="Bass"
V:1
"^Introitus""^Giuseppe Ottavio Pitoni\n(1657-1743)""^Missa pro defunctis" (F8 G8- | G4) F4 F8 | %2
w: Re\- *|* qui- em,|
 z4 (c8 d4- | d4 c2 B2 A8- | A4 G2 F2 E2 C2 c4- | c4 B2 A2 B6) B2 | G4 (B8 A2 G2) | %7
w: re\- *|||* * * * qui-|em ae\- * *|
 (F6 G2 A2 F2 B4- | B4 A2 G2 A8) | B8 z4 A4 | (A8 G8) | (A4 c4 A4 G4 | A4 B4 A8) | G8 (A8 | %14
w: ter\- * * * *||nam do-|na *|e\- * * *||is Do\-|
 G4 F4 c8 | B6 AG F4 A4 | B4) G4 F4 (B4 | c8 d8- | d4 c8 B4- | B4 A2 G2 A4) A4 | B8 z4 B4 | %21
w: ||* mi- ne, Do\-|||* * * * mi-|ne: et|
 (B6 A2 G8- | G4) G4 G4 F4 | (B6 AB c4) A4 | (G4 A4 G6) G2 | (F6 ED E8) | z4 F8 E4 | (F4 A4 F8- | %28
w: lux * *|* per- pe- tu-|a, * * * per-|pe\- * * tu-|a * * *|lu- ce-|at, * *|
 F8) z4 F4- | F4 A4 (F8- | F4 A4) B8 | A8 z8 | (B8 c8 | d6 c2 B8 | %34
w: * lu\-|* ce- at|* * e-|is,|e\- *||
[Q:1/4=178] c6[Q:1/4=175] B2[Q:1/4=172] A8 | %35
w: |
[Q:1/4=167] B6[Q:1/4=165] A2[Q:1/4=163] G4[Q:1/4=161] c4) |[Q:1/4=160] c16!fine! |] %37
w: |is.|
[M:4/4][Q:1/4=84]"^Largo"[Q:1/4=84][Q:1/4=84][Q:1/4=84] c4 z cAc | d2 d2 z2 B2- | B2 cd (G4 | %40
w: Te, te de- cet|hy- mnus De\-|* us in Si\-|
 cB B4 A2) | B4 z2 A2 | G2 G2 z2 B2 | A2 A2 z ABA | B4 BBcB | c4 c2 c2- | c2 (Ac) F3 F | %47
w: |on, et|ti- bi, et|ti- bi red- de- tur|vo- tum, red- de- tur|vo- tum in|* Je\- * ru- sa-|
 F2 B4 (GB) | =E2 F4 E2 | F4 z2 c2 | c2 B2 z4 | z2 A4 BA | F6 A2 | (B2 A4 G2 | F4) E4 | z4 c3 d | %56
w: lem, in Je\- *|ru\- * sa-|lem: ex-|au- di|o- ra- ti-|o- nem|me\- * *|* am,|ad te|
 _e2 e2 (B3 c | d2) d2 A4- | A2 GF B4- || B4 _A4 G6 G2 |"^al fine" !fermata!F16 |] %61
w: o- mnis ca\- *|* ro ve\-||* * * ni-|et.|
V:2
 x16 | x16 | x16 | x16 | x16 | x16 | x16 | x16 | x16 | x16 | x16 | x16 | x16 | x16 | x16 | x16 | %16
w: ||||||||||||||||
 x16 | x16 | x16 | x16 | x16 | x16 | x16 | x16 | x16 | x16 | x16 | x16 | x16 | x16 | x16 | x16 | %32
w: ||||||||||||||||
 x16 | x16 | x16 | x16 | x16 |][M:4/4][K:treble] A8 | z A^FA B2 B2 | z4 z2 G2- | G2 AB _E4- | %41
w: |||||Te,|te- de- cet hy- mnus|De-|* us in Si\-|
 E2 D2 z2 F2 | F2 =E2 z2 G2 | G2 ^F2 z4 | z ^FGF G4 | GGAG A4 | A4 z2 f2- | f2 (df) B4- | %48
w: * on, et|ti- bi, et|ti- bi|red- de- tur vo-|tum, red- de- tur vo-|tum in|* Je\- * ru\-|
 (B2 A2 G3) G | F2 A2 A2 G2 | z2 F4 GF | E4 E2 (E2- | E2 D^C D4- | D2 F2 D4- | D4) ^C4 | z4 A3 B | %56
w: * * * sa-|lem: ex- au- di|o- ra- ti-|o- nem me\-|||* am,|ad te|
 c2 c2 (G3 A | B2) B2 F4- | F2 ED G4- || G4 F8 E4 | !fermata!F16 |] %61
w: o- mnis ca\- *|* ro ve\-||* * ni-|et.|
V:3
 z4 (F8 E2 D2 | E4 F4 D6) D2 | C4 (F,4 F8- | F4) E4 F4 (F4- | F4 E2 D2) (C6 D2 | E2 C2 F8 E2 D2 | %6
w: Re\- * *|* * * qui-|em, re\- *|* qui- em ae\-|* * * ter\- *||
 E8 F4 (F4- | F2 G2 A2 G2) F4 E2 DE | F16) | F4 D8 C4 | (D4 F8 E4 | F12 G4 | F4 D4 z4 D4- | %13
w: * nam, ae\-|* * * * ter\- * * *||nam do- na|e\- * *||* is, do\-|
 D4 B,4 D4 F4 | (B,6 CD _E4 F4- | F2) _E2 D4 z8 | z4 C8 B,4- | B,4 A,4 B,6 CD | %18
w: * na e- is|Do\- * * * *|* mi- ne,|Do\- *||
 _E4 F2 E2 D2 E2 F2 G2 | F12) F4 | F4 D4 (D6 C2 | B,8) z4 D4 | C4 D4 C6 C2 | B,8 z4 D4 | %24
w: |* mi-|ne: et lux, *|* et|lux per- pe- tu-|a, et|
 B,4 F8 (E4- | E4 D8) ^C4 | D8 z8 | z8 z4 D4- | D4 C4 (D4 F4 | D4 C4 D6 _ED | C8 (B,8 | C8 D6 C2 | %32
w: lux per- pe\-|* * tu-|a|lu\-|* ce- at *||* e\-||
 B,4 D4) F4 F,4- | F,2 G,A, B,6 A,2 G,2 F,2 | _E,4 _E4 F6 E2 | D2 =E2 F8 E4) | F16 |][M:4/4] z8 | %38
w: * * is, e\-||||is.||
 z8 | z8 | z8 | z8 | z8 |[M:4/4] z8 | z8 | z8 | z8 | z8 |[M:4/4] z8 | z8 | z8 | z8 | z8 | z8 | z8 | %55
w: |||||||||||||||||
[M:4/4] z8 | z8 | z8 | z8 || z16 | z16 |] %61
w: ||||||
V:4
 z16 | z8 (B8 | c12) B4 | B8 z4 (F4 | G8 A8) | (A4 G2 F2 G8) | (G8 F8) | (D6 E2) (F2 D2 G4) | F16 | %9
w: |Re\-|* qui-|em ae\-||ter\- * * *|nam, *|ae\- * ter\- * *|nam,|
 z4 (B8 A2 G2 | F4 c4 d4 c2 B2 | A4 F4 c6 B2 | A4 (G8 ^F4) | G8 z4 d4 | d8 c8) | (d4 f4 d4 c4 | %16
w: ae\- * *|||* ter\- *|nam do-|na *|e\- * * *|
 d4 _e4 d8) | c4 (c8 B4- | B4 A4 B4 D4 | F12) F4 | B,8 z4 d4 | (d6 c2 B4) G4 | _E4 B8 (A4- | %23
w: |is Do\- *||* mi-|ne: et|lux, * * et|lux per- pe\-|
 A4 G8 ^F4 | d12 c4- | c4 B8 A2 G2 | F6) G2 A8- | A8 z4 B4- | B4 A4 B4 (d4 | B4 A4 B6 cB) | %30
w: |||* tu- a|* lu\-|* ce- at e\-||
 A4 (f2 e2 d4 e4- | e2 d2 c2 B2 A4 d4- | d2 c2 B4) A8 | (F8 G8 | A6 G2 F8 | G8) (G8 | F16) |] %37
w: is, e\- * * *||* * * is,|e\- *||* is.||
[M:4/4][K:treble-8] F8 | z ^FDF G2 G2 | z4 z2 _e2- | e2 fg c4 | B4 z2 F2 | c2 c2 z2 G2 | d2 d2 z4 | %44
w: Te,|te- de- cet hy- mnus|De-|* us in Si-|on, et|ti- bi, et|ti- bi|
 z d_ed e4 | _eefe f4 | f4 z2 d2- | d2 (Bd) (G4 | c6 c2 | F2 f2 f2 e2 | z2 d4 ed | ^c4 c4 | %52
w: red- de- tur vo-|tum, red- de- tur vo-|tum in|* Je\- * ru\-|* sa-|lem: ex- au- di|o- ra- ti-|o- nem|
 (d6 ^F2 | G2 A2 B4) | A8 | d3 e f2 f2 | c3 d _e2) e2 | (B3 c d2) d2 | (B6 AG || A4 =B4 c6 c2) | %60
w: me\- *||am,|ad te o- mnis|ca\- * * ro,|ca\- * * ro|ve\- * *|* * * ni-|
 !fermata!F16 |] %61
w: et.|
V:5
 z16 | z8 z4 (B,4- | B,4 A,2 G,2 A,4 B,4 | G,6) G,2 F,8 | z16 | z16 | z4 (B,4 C8 | D8) (D4 C2 B,2 | %8
w: |Re\-||* qui- em,|||ae\- *|* ter\- * *|
 C8) (C8 | B,4) B,,4 (F,6 E,2 | D,4 A,,4 B,,4 C,4) | F,,4 (F,8 E,4 | F,4 G,4) D,8 | G,,4 G,8 F,4 | %14
w: * nam,|* ae- ter\- *||nam, ae\- *|* * ter-|nam do- na|
 (G,4 B,8 A,4 | B,12 A,4 | G,4) C,4 (D,6 C,B,, | F,6) F,2 B,,4 (B,4 | C8 D8- | D4 C2 B,2 C6) C2 | %20
w: e\- * *||* is Do\- * *|* mi- ne, Do\-||* * * * mi-|
 B,4 B,4 (B,6 A,2 | G,16) | z4 G,4 _E,4 F,4 | (D,4 _E,4 C,4) D,4 | G,,4 D,4 B,,4 C,4 | %25
w: ne: et lux, *||et lux per-|pe\- * * tu-|a et lux per-|
 (A,,4 B,,4 G,,4) A,,4 | D,4 D,8 C,4 | (D,4 F,4 D,6 E,2 | F,8) (B,,6 C,2 | D,2 E,2 F,4) B,,8 | %30
w: pe\- * * tu-|a lu- ce-|at * * *|* e\- *|* * * is,|
 (F,8 G,8 | A,6 G,2 F,4 B,2 A,2 | G,8 F,6 E,2 | D,8 _E,6 D,2 | C,8 D,6 C,2 | B,,8 C,8) | F,,16 |] %37
w: e\- *||||||is.|
[M:4/4] z8 | z8 | z8 | z8 | z8 | z8 |[M:4/4] z8 | z8 | z8 | z8 | z8 |[M:4/4] z8 | z8 | z8 | z8 | %52
w: |||||||||||||||
 z8 | z8 | z8 |[M:4/4] z8 | z8 | z8 | z8 || z16 | z16 |] %61
w: |||||||||

